X:1
T:Moderns sång
T:W. Peterson-Berger (1867-1942)
T:Björnstjerne Björnson
T:Moderns sång
T:Ur "Arne"
T:©CPDL Edition may be freely distributed, duplicated, performed and recorded PA Aglert
T:©CPDL Edition may be freely distributed, duplicated, performed and recorded PA Aglert
C:W. Peterson-Berger (1867-1942)
Z:©CPDL Edition may be freely distributed, duplicated, performed and recorded
Z:PA Aglert
%%score [ ( 1 2 ) ( 3 4 ) ]
L:1/8
Q:1/4=70
M:4/4
K:Dmin
V:1 treble nm="MusicXML Part"
V:2 treble 
V:3 bass nm="MusicXML Part"
V:4 bass 
V:1
"^Lugnt, innerligt"!p! D3 E F2 FA | E3 F G4 | B2 AF E2 DE | C4 D4 | F2 FG A2 Ac | B3 c A4 | %6
w: Her- re häg- na med|kär- leks- band|bar- net som le- ker vid|stran- den,|bjud ho- nom hål- la, din|Hel- ge- and,|
 e2 cA G2 FA | E4 E4 |!p! A2 AA B3 B | F2 F2 A4 |"^cresc." A2 AA A2 Bc | B2 G2 A4 | %12
w: vakt vid den far- li- ga|ran- den.|Vatt- net är djupt och|bott- nen glatt.|Her- re, får han blott i|ar- men fatt|
!<(! B2 cd e2 fg!<)! |!>(! f4 d4!>)! |!p! c2 GA BA!>(! G2 | (F4 E4) | D8!>)! |] %17
w: drunk- nar det ic- ke, men|an- das|än, när din nå- des dag|ran- *|das.|
V:2
 D3 E F2 FA | E3 F G4 | B2 AF E2 DE | C4 B,4 | C2 CC C2 CC | F3 C (C3 D) | E2 EE E2 DF | D4 D4 | %8
 ^C2 EE F3 F | F2 F2 F4 | G2 GG G2 G^F | D2 E2 !courtesy!=F4 | F2 FF c2 cc | c4 =B4 | %14
 !courtesy!_B2 GG GF E2 | (D4 ^C4) | D8 |] %17
V:3
!p! D,3 E, F,2 F,A, | E,3 F, G,4 | B,2 A,F, E,2 D,E, | C,4 F,4 | F,2 F,G, A,2 F,F, | %5
 F,3 G, (A,3 =B,) | A,2 A,A, A,2 A,A, | A,4 ^G,4 |!p! A,2 ^CC D3 D | _D2 D2 !courtesy!=C4 | %10
"^cresc." ^C2 CC =C2 B,A, | G,2 B,2 D4 |!<(! D2 EF G2 F!<)!E |!>(! F4!>)! F4 | %14
!p! E2 _EE DD!>(! D2 | A,8 | D,8!>)! |] %17
V:4
 D,3 E, F,2 F,A, | E,3 F, G,4 | B,2 A,F, E,2 D,E, | C,4 B,,4 | A,,2 A,,C, F,2 F,E, | D,3 E, F,4 | %6
 C,2 C,C, D,2 D,D, | E,4 E,4 | A,2 A,A, G,3 G, | B,2 B,2 F,4 | E,2 E,E, _E,2 D,D, | %11
 D,2 D,2 D,3 C, | B,,2 B,B, B,2 B,B, | A,4 _A,4 | G,2 CC G,A, B,2 | (A,4 A,,4) | D,8 |] %17

